projects/vfh1/img/icons-service/Creame.svg

<svg viewBox="0 0 33 28" fill="none" xmlns="http://www.w3.org/2000/svg">
<path d="M18.5263 2H14.8327C14.6009 2.00117 14.3787 2.09253 14.2132 2.25473L12.9279 3.54579C12.8066 3.66724 12.724 3.82191 12.6906 3.99026C12.6572 4.15862 12.6743 4.33311 12.74 4.4917C12.8057 4.65029 12.9169 4.78586 13.0595 4.88129C13.2022 4.97673 13.37 5.02774 13.5416 5.02789C13.6557 5.02811 13.7686 5.00571 13.874 4.96198C13.9793 4.91826 14.0749 4.85408 14.1553 4.77315L15.1916 3.73684H15.6316V5.47368C15.6316 5.55046 15.6621 5.62408 15.7164 5.67837C15.7707 5.73266 15.8443 5.76316 15.9211 5.76316H17.079C17.1558 5.76316 17.2294 5.73266 17.2837 5.67837C17.3379 5.62408 17.3685 5.55046 17.3685 5.47368V3.73684H18.5263C18.7567 3.73684 18.9775 3.64534 19.1404 3.48248C19.3033 3.31962 19.3948 3.09874 19.3948 2.86842C19.3948 2.6381 19.3033 2.41721 19.1404 2.25435C18.9775 2.09149 18.7567 2 18.5263 2Z" fill="#42474D"/>
<path d="M19.1053 8.42051V8.3684C19.1053 8.06131 18.9833 7.7668 18.7661 7.54965C18.549 7.3325 18.2545 7.21051 17.9474 7.21051H15.0526C14.7455 7.21051 14.451 7.3325 14.2339 7.54965C14.0167 7.7668 13.8947 8.06131 13.8947 8.3684V8.42051C13.04 8.76625 12.308 9.35922 11.7923 10.1235C11.2766 10.8877 11.0007 11.7885 11 12.7105V23.7105C11 24.3247 11.244 24.9137 11.6783 25.348C12.1126 25.7823 12.7016 26.0263 13.3158 26.0263H19.6842C20.2984 26.0263 20.8874 25.7823 21.3217 25.348C21.756 24.9137 22 24.3247 22 23.7105V12.7105C21.9993 11.7885 21.7234 10.8877 21.2077 10.1235C20.692 9.35922 19.96 8.76625 19.1053 8.42051ZM15.1279 13.631L16.2858 12.4731C16.3465 12.4127 16.4288 12.3787 16.5145 12.3787C16.6002 12.3787 16.6824 12.4127 16.7432 12.4731L17.9011 13.631C18.1732 13.903 18.3587 14.2496 18.4338 14.627C18.509 15.0044 18.4706 15.3956 18.3234 15.7511C18.1762 16.1067 17.9269 16.4106 17.6069 16.6244C17.287 16.8382 16.9108 16.9523 16.5261 16.9523C16.1413 16.9523 15.7651 16.8382 15.4452 16.6244C15.1252 16.4106 14.8759 16.1067 14.7287 15.7511C14.5815 15.3956 14.5431 15.0044 14.6183 14.627C14.6934 14.2496 14.8789 13.903 15.1511 13.631H15.1279ZM18.5263 21.2558H14.4737C14.2434 21.2558 14.0225 21.1643 13.8596 21.0014C13.6968 20.8386 13.6053 20.6177 13.6053 20.3873C13.6053 20.157 13.6968 19.9361 13.8596 19.7733C14.0225 19.6104 14.2434 19.5189 14.4737 19.5189H18.5263C18.7566 19.5189 18.9775 19.6104 19.1404 19.7733C19.3032 19.9361 19.3947 20.157 19.3947 20.3873C19.3947 20.6177 19.3032 20.8386 19.1404 21.0014C18.9775 21.1643 18.7566 21.2558 18.5263 21.2558Z" fill="#42474D"/>
</svg>

<svg viewBox="0 0 33 28" fill="none" xmlns="http://www.w3.org/2000/svg"><path d="M18.526 2h-3.693a.891.891 0 00-.62.255l-1.285 1.29a.868.868 0 001.227 1.228l1.037-1.036h.44v1.737a.29.29 0 00.29.29h1.157a.29.29 0 00.29-.29V3.737h1.157a.868.868 0 100-1.737zm.579 6.42v-.052a1.158 1.158 0 00-1.158-1.157h-2.894a1.158 1.158 0 00-1.158 1.157v.053A4.631 4.631 0 0011 12.71v11a2.316 2.316 0 002.316 2.315h6.368A2.316 2.316 0 0022 23.71v-11a4.631 4.631 0 00-2.895-4.29zm-3.977 5.211l1.158-1.158a.324.324 0 01.457 0l1.158 1.158a1.945 1.945 0 11-2.75 0h-.023zm3.398 7.625h-4.052a.868.868 0 010-1.737h4.052a.868.868 0 010 1.737z" fill="#42474D"/></svg>
